storage/app/icons/phosphoricons/fill/trolley-suitcase-fill.svg

<svg xmlns="http://www.w3.org/2000/svg" fill="currentColor" viewBox="0 0 256 256"><path d="M88 224a16 16 0 1 1-16-16 16 16 0 0 1 16 16m128-16a16 16 0 1 0 16 16 16 16 0 0 0-16-16m24-32H56V75.31A15.86 15.86 0 0 0 51.31 64L29.66 42.34a8 8 0 0 0-11.32 11.32L40 75.31V176h-8a8 8 0 0 0 0 16h208a8 8 0 0 0 0-16M72 144V72a16 16 0 0 1 16-16h32V40a16 16 0 0 1 16-16h32a16 16 0 0 1 16 16v16h32a16 16 0 0 1 16 16v72a16 16 0 0 1-16 16H88a16 16 0 0 1-16-16m64-88h32V40h-32Z"/></svg>

<svg xmlns="http://www.w3.org/2000/svg" viewBox="0 0 256 256" fill="currentColor"><path d="M88,224a16,16,0,1,1-16-16A16,16,0,0,1,88,224Zm128-16a16,16,0,1,0,16,16A16,16,0,0,0,216,208Zm24-32H56V75.31A15.86,15.86,0,0,0,51.31,64L29.66,42.34A8,8,0,0,0,18.34,53.66L40,75.31V176H32a8,8,0,0,0,0,16H240a8,8,0,0,0,0-16ZM72,144V72A16,16,0,0,1,88,56h32V40a16,16,0,0,1,16-16h32a16,16,0,0,1,16,16V56h32a16,16,0,0,1,16,16v72a16,16,0,0,1-16,16H88A16,16,0,0,1,72,144Zm64-88h32V40H136Z"/></svg>
